#define LBM_width 32
#define LBM_height 32
static unsigned char LBM_bits[] = {
   0x00, 0x00, 0x00, 0x00, 0x00, 0x00, 0x00, 0x00, 0x00, 0x00, 0x00, 0x00,
   0x00, 0x00, 0x00, 0x00, 0xf0, 0xff, 0xff, 0x0f, 0xf8, 0xff, 0xff, 0x1f,
   0x1c, 0x00, 0x00, 0x38, 0x1c, 0x00, 0x00, 0x38, 0x0c, 0x00, 0x00, 0x30,
   0x0c, 0x00, 0x38, 0x30, 0x0c, 0x00, 0x7c, 0x30, 0x0c, 0x00, 0x7c, 0x30,
   0x0c, 0x00, 0x7c, 0x30, 0x0c, 0x00, 0x3c, 0x30, 0x0c, 0x00, 0x00, 0x30,
   0x0c, 0x0c, 0x00, 0x30, 0x0c, 0x1e, 0x00, 0x30, 0x0c, 0x3f, 0xe0, 0x30,
   0x8c, 0x7f, 0xf0, 0x31, 0x8c, 0x7f, 0xf8, 0x33, 0xcc, 0xff, 0xfc, 0x37,
   0xec, 0xff, 0xff, 0x3f, 0xfc, 0xff, 0xff, 0x3f, 0xfc, 0xff, 0xff, 0x3f,
   0xfc, 0xff, 0xff, 0x3f, 0xfc, 0xff, 0xff, 0x3f, 0xf8, 0xff, 0xff, 0x1f,
   0xf0, 0xff, 0xff, 0x0f, 0x00, 0x00, 0x00, 0x00, 0x00, 0x00, 0x00, 0x00,
   0x00, 0x00, 0x00, 0x00, 0x00, 0x00, 0x00, 0x00 };
