#define playing_width 24
#define playing_height 24
static unsigned char playing_bits[] = {
   0x00, 0x00, 0x00, 0x00, 0x00, 0x00, 0xf0, 0x81, 0x0f, 0xf8, 0xc3, 0x1f,
   0xf8, 0xc3, 0x1f, 0xf8, 0xc3, 0x1f, 0xf8, 0xc3, 0x1f, 0xf8, 0xc3, 0x1f,
   0xf8, 0xc3, 0x1f, 0xf8, 0xc3, 0x1f, 0xf8, 0xc3, 0x1f, 0xf8, 0xc3, 0x1f,
   0xf8, 0xc3, 0x1f, 0xf8, 0xc3, 0x1f, 0xf8, 0xc3, 0x1f, 0xf8, 0xc3, 0x1f,
   0xf8, 0xc3, 0x1f, 0xf8, 0xc3, 0x1f, 0xf8, 0xc3, 0x1f, 0xf8, 0xc3, 0x1f,
   0xf8, 0xc3, 0x1f, 0xf0, 0x81, 0x0f, 0x00, 0x00, 0x00, 0x00, 0x00, 0x00 };
