#define ___________________width 24
#define ___________________height 24
static unsigned char ___________________bits[] = {
   0x00, 0x00, 0x00, 0x00, 0x00, 0x00, 0x00, 0x00, 0x00, 0x38, 0x00, 0x00,
   0x78, 0x00, 0x00, 0xf8, 0x01, 0x00, 0xf8, 0x07, 0x00, 0xf8, 0x1f, 0x00,
   0xf8, 0x7f, 0x00, 0xf8, 0xff, 0x01, 0xf8, 0xff, 0x07, 0xf8, 0xff, 0x1f,
   0xf8, 0xff, 0x1f, 0xf8, 0xff, 0x1f, 0xf8, 0xff, 0x07, 0xf8, 0xff, 0x01,
   0xf8, 0x7f, 0x00, 0xf8, 0x1f, 0x00, 0xf8, 0x07, 0x00, 0xf8, 0x01, 0x00,
   0xf8, 0x00, 0x00, 0x38, 0x00, 0x00, 0x00, 0x00, 0x00, 0x00, 0x00, 0x00 };
