#define _E8_8C_9C_E7_89_B9_E8_8F_88_E8_8E_89_width 227
#define _E8_8C_9C_E7_89_B9_E8_8F_88_E8_8E_89_height 128
static unsigned char _E8_8C_9C_E7_89_B9_E8_8F_88_E8_8E_89_bits[] = {
   0xff, 0xff, 0xff, 0xff, 0xff, 0xff, 0xff, 0x01, 0x00, 0x00, 0x00, 0x00,
   0x00, 0x00, 0x00, 0x00, 0x00, 0x00, 0x00, 0x00, 0xc0, 0xff, 0xff, 0xff,
   0xff, 0xff, 0xff, 0xff, 0x07, 0xff, 0xff, 0xff, 0xff, 0xff, 0xff, 0xff,
   0x01, 0x20, 0x00, 0x00, 0x00, 0x00, 0x00, 0x00, 0x00, 0x00, 0x00, 0x00,
   0x04, 0xc0, 0xff, 0xff, 0xff, 0xff, 0xff, 0xff, 0xff, 0x07, 0xff, 0xff,
   0xff, 0xff, 0xff, 0xff, 0xff, 0x03, 0x08, 0x00, 0x00, 0x00, 0x00, 0x00,
   0x00, 0x00, 0x00, 0x00, 0x00, 0x00, 0xc0, 0xff, 0xff, 0xff, 0xff, 0xff,
   0xff, 0xff, 0x07, 0xff, 0xff, 0xff, 0xff, 0xff, 0xff, 0xff, 0x01, 0x00,
   0x00, 0x00, 0x00, 0x00, 0x00, 0x00, 0x00, 0x00, 0x00, 0x80, 0x00, 0x80,
   0xff, 0xff, 0xff, 0xff, 0xff, 0xff, 0xff, 0x07, 0xff, 0xff, 0xff, 0xff,
   0xff, 0xff, 0xff, 0x02, 0x02, 0x00, 0x00, 0x00, 0x00, 0x00, 0x00, 0x00,
   0x00, 0x00, 0x00, 0x40, 0xc0, 0xff, 0xff, 0xff, 0xff, 0xff, 0xff, 0xff,
   0x07, 0xff, 0xff, 0xff, 0xff, 0xff, 0xff, 0xff, 0x01, 0x00, 0x00, 0x00,
   0x00, 0x00, 0x00, 0x00, 0x00, 0x00, 0x00, 0x00, 0x00, 0x80, 0xff, 0xff,
   0xff, 0xff, 0xff, 0xff, 0xff, 0x07, 0xff, 0xff, 0xff, 0xff, 0xff, 0xff,
   0xff, 0x01, 0x00, 0x00, 0x00, 0x00, 0x00, 0x00, 0x00, 0x00, 0x00, 0x00,
   0x00, 0x09, 0xc0, 0xff, 0xff, 0xff, 0xff, 0xff, 0xff, 0xff, 0x07, 0xff,
   0xff, 0xff, 0xff, 0xff, 0xff, 0xff, 0x01, 0x00, 0x00, 0x00, 0x00, 0x00,
   0x00, 0x00, 0x00, 0x00, 0x00, 0x00, 0x00, 0x80, 0xff, 0xff, 0xff, 0xff,
   0xff, 0xff, 0xff, 0x07, 0xff, 0xff, 0xff, 0xfd, 0xff, 0xff, 0xff, 0x01,
   0x00, 0x00, 0x00, 0x00, 0x00, 0x00, 0x00, 0x00, 0x00, 0x00, 0x00, 0x02,
   0xc0, 0xff, 0xff, 0xff, 0xff, 0xfb, 0xff, 0xff, 0x07, 0xff, 0xff, 0xff,
   0xff, 0xff, 0xff, 0xff, 0x01, 0x00, 0x00, 0x00, 0x00, 0x00, 0xc0, 0x00,
   0x01, 0x00, 0x00, 0x00, 0x00, 0xc0, 0xff, 0xff, 0xff, 0xff, 0xff, 0xff,
   0xff, 0x07, 0xff, 0xff, 0xff, 0xfd, 0xff, 0xff, 0xff, 0x03, 0x00, 0x00,
   0x00, 0x00, 0x00, 0xe0, 0x80, 0x03, 0x00, 0x00, 0x00, 0x00, 0xc0, 0xff,
   0xff, 0xff, 0xff, 0xfb, 0xff, 0xff, 0x07, 0xff, 0xff, 0xff, 0xfe, 0xff,
   0xff, 0xff, 0x03, 0x00, 0x00, 0x00, 0x00, 0x00, 0xf0, 0x80, 0x07, 0x00,
   0x00, 0x00, 0x00, 0x80, 0xff, 0xff, 0xff, 0xff, 0xfd, 0xff, 0xff, 0x07,
   0xff, 0xff, 0xff, 0xff, 0xff, 0xff, 0xff, 0x02, 0x00, 0x00, 0x00, 0x00,
   0x00, 0xb0, 0x00, 0x0f, 0x00, 0x00, 0x00, 0x00, 0xa0, 0xff, 0xff, 0xff,
   0xff, 0xff, 0xff, 0xff, 0x07, 0xff, 0xff, 0xff, 0xff, 0xff, 0xff, 0xff,
   0x03, 0x00, 0x00, 0x00, 0x00, 0x00, 0xf8, 0x76, 0x1d, 0x00, 0x00, 0x00,
   0x00, 0xe0, 0xff, 0xff, 0xff, 0xff, 0xff, 0xff, 0xff, 0x07, 0xff, 0xff,
   0x3f, 0xff, 0xff, 0xff, 0xff, 0x05, 0x00, 0x00, 0x00, 0x00, 0x00, 0xd8,
   0xfb, 0x1b, 0x00, 0x00, 0x00, 0x00, 0xe0, 0xff, 0xff, 0xff, 0xff, 0xef,
   0xff, 0xff, 0x07, 0xff, 0xff, 0xdf, 0xff, 0xff, 0xff, 0xff, 0x03, 0x00,
   0x00, 0x00, 0x00, 0x00, 0x58, 0x4b, 0x1d, 0x00, 0x00, 0x00, 0x00, 0xe0,
   0xff, 0xff, 0xff, 0xff, 0xef, 0xff, 0xff, 0x07, 0xff, 0xff, 0xbf, 0xff,
   0xff, 0xff, 0xff, 0x03, 0x00, 0x00, 0x00, 0x00, 0x00, 0x7c, 0xbd, 0x3e,
   0x00, 0x00, 0x00, 0x00, 0xe0, 0xff, 0xff, 0xff, 0xff, 0xef, 0xff, 0xff,
   0x07, 0xff, 0xff, 0x9f, 0xff, 0xff, 0xff, 0xff, 0x07, 0x00, 0x00, 0x00,
   0x00, 0x00, 0x56, 0x55, 0x3d, 0x00, 0x00, 0x00, 0x00, 0xd0, 0xff, 0xff,
   0xff, 0xff, 0xe7, 0xff, 0xff, 0x07, 0xff, 0xff, 0xbf, 0xff, 0xff, 0xff,
   0xff, 0x07, 0x00, 0x00, 0x00, 0x00, 0x00, 0xac, 0xd6, 0x7a, 0x00, 0x00,
   0x00, 0x00, 0xe0, 0xff, 0xff, 0xff, 0xff, 0xcf, 0xff, 0xff, 0x07, 0xff,
   0xff, 0xbf, 0xff, 0xff, 0xff, 0xff, 0x07, 0x00, 0x00, 0x00, 0x00, 0x00,
   0x96, 0x2a, 0x29, 0x00, 0x00, 0x00, 0x00, 0xf0, 0xff, 0xff, 0xff, 0xff,
   0xf7, 0xff, 0xff, 0x07, 0xff, 0xff, 0xff, 0xff, 0xff, 0xff, 0xff, 0x0f,
   0x00, 0x00, 0x00, 0x00, 0x00, 0xaa, 0xaa, 0x6a, 0x00, 0x00, 0x00, 0x00,
   0xf0, 0xff, 0xff, 0xff, 0xff, 0xff, 0xff, 0xff, 0x07, 0xff, 0xff, 0xff,
   0xfe, 0xff, 0xff, 0xff, 0x0e, 0x00, 0x00, 0x00, 0x00, 0x00, 0x8a, 0x5a,
   0x55, 0x00, 0x00, 0x00, 0x00, 0xf0, 0xff, 0xff, 0xff, 0xff, 0xfd, 0xff,
   0xff, 0x07, 0xff, 0xff, 0xff, 0xf9, 0xff, 0xff, 0xff, 0x17, 0x00, 0x00,
   0x00, 0x00, 0x00, 0x6c, 0xa5, 0x68, 0x00, 0x00, 0x00, 0x00, 0xf8, 0xff,
   0xff, 0xff, 0xff, 0xfd, 0xff, 0xff, 0x07, 0xff, 0xff, 0xff, 0xfe, 0xff,
   0xff, 0xff, 0x0f, 0x00, 0x00, 0x00, 0x00, 0x00, 0x81, 0x24, 0x1b, 0x00,
   0x00, 0x00, 0x00, 0xf0, 0xff, 0xff, 0xff, 0x7f, 0xf9, 0xff, 0xff, 0x07,
   0xff, 0xff, 0xaf, 0xf0, 0xff, 0xff, 0xff, 0x1f, 0x00, 0x00, 0x00, 0x00,
   0x80, 0x4a, 0xa2, 0xb2, 0x00, 0x00, 0x00, 0x00, 0xfc, 0xff, 0xff, 0xff,
   0xff, 0xfa, 0xff, 0xff, 0x07, 0xff, 0xff, 0xfd, 0xfd, 0xff, 0xff, 0xff,
   0x1f, 0x00, 0x00, 0x00, 0x00, 0x80, 0x40, 0x42, 0x50, 0x00, 0x00, 0x00,
   0x00, 0xf8, 0xff, 0xff, 0xff, 0x7f, 0x52, 0xff, 0xff, 0x07, 0xff, 0xff,
   0xd7, 0xf2, 0xff, 0xff, 0xff, 0x3f, 0x00, 0x00, 0x00, 0x00, 0x80, 0x2a,
   0x91, 0x92, 0x03, 0x00, 0x00, 0x00, 0xfe, 0xff, 0xff, 0xff, 0xff, 0xfa,
   0xff, 0xff, 0x07, 0xff, 0x7f, 0xdd, 0xfe, 0xff, 0xff, 0xff, 0x37, 0x00,
   0x00, 0x00, 0x00, 0x80, 0x20, 0xa0, 0xc2, 0x02, 0x00, 0x00, 0x00, 0xfc,
   0xff, 0xff, 0xff, 0xff, 0xaa, 0xfa, 0xff, 0x07, 0xff, 0x7f, 0x77, 0xfd,
   0xff, 0xff, 0xff, 0x7f, 0x00, 0x00, 0x00, 0x00, 0x30, 0x09, 0x02, 0x58,
   0x07, 0x00, 0x00, 0x00, 0xfe, 0xff, 0xff, 0xff, 0xff, 0xfb, 0xfb, 0xff,
   0x07, 0xff, 0x5f, 0xed, 0xff, 0xff, 0xff, 0xff, 0x6f, 0x00, 0x00, 0x00,
   0x00, 0xd4, 0x22, 0x00, 0x80, 0x17, 0x00, 0x00, 0x00, 0xff, 0xff, 0xff,
   0xff, 0xff, 0x5f, 0xeb, 0xff, 0x07, 0xff, 0x7f, 0x5b, 0xff, 0xff, 0xff,
   0xff, 0x7f, 0x00, 0x00, 0x00, 0x00, 0xe8, 0x01, 0x00, 0xc8, 0x1a, 0x00,
   0x00, 0x00, 0xff, 0xff, 0xff, 0xff, 0xff, 0x6f, 0xed, 0xff, 0x07, 0xff,
   0x5f, 0xeb, 0xff, 0xff, 0xff, 0xff, 0xff, 0x00, 0x00, 0x00, 0x00, 0x52,
   0x11, 0x00, 0x82, 0x2b, 0x00, 0x00, 0x40, 0xff, 0xff, 0xff, 0xff, 0xff,
   0xaf, 0xed, 0xff, 0x07, 0xff, 0x7f, 0xdd, 0xff, 0xff, 0xff, 0xff, 0xef,
   0x01, 0x00, 0x00, 0x00, 0xa8, 0x00, 0x00, 0x80, 0x55, 0x00, 0x00, 0x80,
   0xff, 0xff, 0xff, 0xff, 0xff, 0x7f, 0xdb, 0xff, 0x07, 0xff, 0xd7, 0xd5,
   0xff, 0xff, 0xff, 0xff, 0xff, 0x01, 0x00, 0x00, 0x00, 0x50, 0x00, 0x00,
   0x40, 0x06, 0x00, 0x00, 0xc0, 0xff, 0xff, 0xff, 0xff, 0xff, 0xd7, 0xda,
   0xff, 0x07, 0xff, 0xaf, 0xb6, 0xff, 0xff, 0xff, 0xff, 0xdf, 0x03, 0x00,
   0x00, 0x00, 0x92, 0x02, 0x00, 0x48, 0x4a, 0x00, 0x00, 0xe0, 0xff, 0xff,
   0xff, 0xff, 0xff, 0x5f, 0xbb, 0xff, 0x07, 0xff, 0xdf, 0xd6, 0xff, 0xff,
   0xff, 0xff, 0x7f, 0x07, 0x00, 0x00, 0x00, 0x22, 0x01, 0x00, 0x82, 0x02,
   0x00, 0x00, 0xd0, 0xff, 0xff, 0xff, 0xff, 0xff, 0xd7, 0xea, 0xff, 0x07,
   0xff, 0xbf, 0x6d, 0xff, 0xff, 0xff, 0xff, 0xff, 0x0b, 0x00, 0x00, 0x00,
   0x00, 0x41, 0x00, 0x40, 0x01, 0x00, 0x00, 0xf0, 0xff, 0xff, 0xff, 0xff,
   0xff, 0xbf, 0x56, 0xff, 0x07, 0xff, 0xa7, 0xda, 0xff, 0xff, 0xff, 0xff,
   0x7f, 0x0f, 0x00, 0x00, 0x00, 0x80, 0x00, 0x00, 0x02, 0x01, 0x00, 0x00,
   0xe8, 0xff, 0xff, 0xff, 0xff, 0xff, 0xd7, 0xda, 0xff, 0x07, 0xff, 0x5f,
   0x6b, 0xff, 0xff, 0xff, 0xff, 0xff, 0x1f, 0x00, 0x00, 0x00, 0x00, 0x00,
   0x02, 0x20, 0x08, 0x00, 0x00, 0xfc, 0xff, 0xff, 0xff, 0xff, 0xff, 0x3f,
   0xa7, 0xff, 0x07, 0xff, 0x57, 0xd5, 0xff, 0xff, 0xff, 0xff, 0xff, 0x3b,
   0x00, 0x00, 0x00, 0x90, 0x00, 0xc1, 0x00, 0x02, 0x00, 0x00, 0xba, 0xff,
   0xff, 0xff, 0xff, 0xff, 0x67, 0xad, 0xff, 0x07, 0xff, 0xaf, 0x56, 0xff,
   0xff, 0xff, 0xff, 0xff, 0x2d, 0x00, 0x00, 0x00, 0x40, 0x00, 0xef, 0x90,
   0x54, 0x00, 0x00, 0xfe, 0xff, 0xff, 0xff, 0xff, 0xff, 0x9f, 0xaa, 0xff,
   0x07, 0xff, 0x27, 0xd5, 0xff, 0xff, 0xff, 0xff, 0xff, 0xff, 0x00, 0x00,
   0x00, 0x0a, 0x00, 0xef, 0x10, 0x0a, 0x00, 0x00, 0xff, 0xff, 0xff, 0xff,
   0xff, 0xff, 0xb7, 0xaa, 0xff, 0x07, 0xff, 0xaf, 0xaa, 0xff, 0xff, 0xff,
   0xff, 0xff, 0x6f, 0x01, 0x00, 0x00, 0x20, 0xe0, 0xef, 0x42, 0x20, 0x02,
   0x80, 0xff, 0xff, 0xff, 0xff, 0xff, 0xff, 0x4f, 0x45, 0xff, 0x07, 0xff,
   0x4f, 0xaa, 0xff, 0xfe, 0xff, 0xff, 0xff, 0xbf, 0x01, 0x00, 0x00, 0x00,
   0xc2, 0x64, 0x0c, 0x40, 0x00, 0xc0, 0xfe, 0xf7, 0xff, 0xff, 0xff, 0xfd,
   0xaf, 0xaa, 0xff, 0x07, 0xff, 0xaf, 0x94, 0xff, 0xfe, 0xff, 0xff, 0xff,
   0x7f, 0x07, 0x00, 0x00, 0x00, 0x80, 0x4d, 0x01, 0x20, 0x00, 0xe0, 0xff,
   0xc2, 0xff, 0xff, 0xff, 0xfb, 0xaf, 0x4a, 0xff, 0x07, 0xff, 0x4f, 0xa9,
   0xff, 0xff, 0xff, 0xff, 0xff, 0x43, 0x0d, 0x00, 0x01, 0x00, 0x00, 0xc4,
   0x42, 0x00, 0x01, 0xe8, 0x6f, 0xc0, 0xff, 0xff, 0xff, 0xff, 0x97, 0xa8,
   0xff, 0x07, 0xff, 0x97, 0x52, 0xff, 0xff, 0xf7, 0xff, 0xff, 0x03, 0x01,
   0x00, 0x00, 0x00, 0xc0, 0x20, 0x01, 0x00, 0x00, 0x00, 0x10, 0xe0, 0xff,
   0xbf, 0xfe, 0xff, 0x2f, 0xa5, 0xff, 0x07, 0xff, 0x2f, 0x95, 0xff, 0xfd,
   0xd7, 0xff, 0xff, 0x07, 0x08, 0x81, 0x00, 0x00, 0x80, 0x92, 0x00, 0x00,
   0x04, 0x00, 0xf4, 0xff, 0xff, 0xaf, 0xff, 0xfe, 0x57, 0x95, 0xff, 0x07,
   0xff, 0x8f, 0xa4, 0xff, 0xf1, 0x57, 0xff, 0xff, 0x03, 0x00, 0x80, 0x00,
   0x00, 0x00, 0x20, 0x03, 0x00, 0x20, 0x40, 0x00, 0xfe, 0xff, 0x57, 0xff,
   0xfc, 0x4f, 0x22, 0xff, 0x07, 0xff, 0x17, 0xa9, 0xff, 0xf9, 0xa7, 0xfe,
   0xff, 0x07, 0x00, 0x80, 0x00, 0x00, 0xc0, 0x46, 0x02, 0x00, 0x00, 0x06,
   0x00, 0xe0, 0xff, 0x55, 0x7f, 0xfc, 0x97, 0x84, 0xff, 0x07, 0xff, 0x87,
   0x24, 0xff, 0xf1, 0xab, 0xfe, 0xff, 0x07, 0x00, 0x80, 0x01, 0x00, 0x00,
   0x41, 0x05, 0x00, 0x00, 0x00, 0x00, 0xe0, 0xff, 0xab, 0x7e, 0xfc, 0xaf,
   0x12, 0xff, 0x07, 0xff, 0x07, 0xc8, 0xff, 0xf9, 0x57, 0xfd, 0xff, 0x0f,
   0x00, 0x00, 0x01, 0x00, 0x50, 0x44, 0x01, 0x00, 0x10, 0x04, 0x00, 0xe0,
   0xff, 0x4a, 0xff, 0xfc, 0x4f, 0x00, 0xff, 0x07, 0x6f, 0x95, 0x24, 0xff,
   0xff, 0xa7, 0xfa, 0xff, 0x0f, 0x14, 0x10, 0x04, 0x00, 0x40, 0x01, 0x02,
   0x00, 0x00, 0x34, 0x00, 0xe0, 0xff, 0x95, 0xfe, 0xff, 0x97, 0x12, 0xf7,
   0x07, 0xfe, 0x07, 0x40, 0x7f, 0xff, 0x17, 0xfd, 0xff, 0x0f, 0x07, 0x3c,
   0x00, 0x00, 0x80, 0x02, 0x05, 0x00, 0x00, 0xc0, 0x01, 0xf0, 0x7f, 0x55,
   0xff, 0xfb, 0x27, 0x00, 0x7f, 0x03, 0xf0, 0x47, 0x12, 0x3b, 0xfe, 0xab,
   0xfa, 0xff, 0xdf, 0x03, 0x1e, 0x00, 0x00, 0x20, 0x42, 0x14, 0x00, 0x00,
   0x02, 0x07, 0xf0, 0xff, 0x92, 0xfe, 0xe3, 0x46, 0x12, 0x7f, 0x02, 0xc4,
   0x07, 0x20, 0x3b, 0xfe, 0x23, 0xf9, 0xff, 0xff, 0xc0, 0x0f, 0x00, 0x00,
   0x40, 0x80, 0x00, 0x00, 0x80, 0x00, 0x1f, 0xf0, 0xff, 0x52, 0xff, 0xa3,
   0x15, 0x00, 0x9f, 0x00, 0x10, 0x87, 0x88, 0x17, 0xfe, 0x0f, 0xfa, 0xff,
   0x7f, 0xe0, 0x07, 0x00, 0x00, 0x00, 0x02, 0x02, 0x40, 0x00, 0x00, 0x7c,
   0xf8, 0x7f, 0x49, 0xfe, 0x43, 0x47, 0x04, 0x23, 0x00, 0x40, 0x04, 0x00,
   0x2f, 0xfe, 0xab, 0xf8, 0xff, 0x7f, 0xf8, 0x03, 0x00, 0x02, 0x20, 0x00,
   0x02, 0x00, 0x00, 0x00, 0xf8, 0xf9, 0x7f, 0x42, 0xff, 0xa3, 0x0f, 0x00,
   0x0b, 0x00, 0x00, 0x09, 0x20, 0x37, 0xfe, 0x03, 0xf1, 0xff, 0x7f, 0xfc,
   0x01, 0x00, 0x00, 0x00, 0x00, 0x00, 0x40, 0x00, 0x00, 0xe4, 0xff, 0xff,
   0x08, 0xff, 0x43, 0x27, 0x00, 0x00, 0x00, 0x00, 0x91, 0x42, 0x2f, 0xfc,
   0x53, 0xfa, 0xff, 0xb7, 0xfe, 0x00, 0x00, 0x00, 0xa0, 0x00, 0x02, 0xe4,
   0x00, 0x00, 0xc8, 0xff, 0xff, 0x12, 0xfe, 0xe1, 0x07, 0x4a, 0x02, 0x00,
   0x00, 0x20, 0x00, 0xbf, 0xfc, 0x07, 0xf1, 0xff, 0xff, 0x7f, 0x00, 0x00,
   0x40, 0x00, 0x88, 0x08, 0xc8, 0x01, 0x01, 0x90, 0xff, 0x7f, 0x48, 0xfe,
   0xf2, 0x47, 0x10, 0x01, 0x00, 0x00, 0x88, 0x0a, 0x5f, 0xf9, 0x43, 0xf8,
   0xff, 0xff, 0xff, 0x00, 0x02, 0x00, 0x20, 0x09, 0x01, 0x28, 0x01, 0x02,
   0xf0, 0xff, 0x7f, 0x01, 0x7f, 0xc8, 0x87, 0x22, 0x00, 0x00, 0x00, 0x20,
   0x20, 0xbf, 0xe0, 0x07, 0xf1, 0xff, 0xff, 0x3f, 0x00, 0x02, 0x00, 0x40,
   0x40, 0x04, 0xe0, 0x03, 0x04, 0xe0, 0xff, 0x7f, 0x04, 0x3e, 0xf4, 0x17,
   0x44, 0x00, 0x00, 0x00, 0x40, 0xc5, 0x9f, 0xe0, 0x03, 0xf8, 0xff, 0xff,
   0x3f, 0x00, 0x01, 0x00, 0x30, 0x85, 0x04, 0x40, 0x05, 0x0c, 0xe0, 0xff,
   0x7f, 0x10, 0x3f, 0xc8, 0x8f, 0x08, 0x00, 0x00, 0x00, 0x00, 0x88, 0xbf,
   0xc0, 0x67, 0xf1, 0xff, 0xff, 0x1f, 0x00, 0x01, 0x00, 0x40, 0x10, 0x2b,
   0xa0, 0x0f, 0x08, 0xe0, 0xff, 0xff, 0x50, 0x1e, 0xf4, 0x5f, 0x12, 0x00,
   0x00, 0x00, 0x80, 0xe9, 0x6f, 0xc1, 0xc3, 0xf8, 0xff, 0xff, 0x1f, 0x80,
   0x01, 0x00, 0x50, 0x25, 0x02, 0x00, 0x1c, 0x18, 0xf0, 0xff, 0x7f, 0x19,
   0x1f, 0xc8, 0x5f, 0x04, 0x00, 0x00, 0x00, 0x00, 0xe2, 0xaf, 0xc0, 0xc7,
   0xf1, 0xff, 0xff, 0x3f, 0x80, 0x00, 0x00, 0x80, 0x94, 0x40, 0x80, 0x2b,
   0x38, 0xf8, 0xff, 0x7f, 0x3c, 0x1e, 0xb4, 0x1f, 0x01, 0x00, 0x00, 0x00,
   0x00, 0xca, 0x57, 0xc0, 0xe3, 0xf0, 0xff, 0xff, 0x3f, 0xc0, 0x00, 0x00,
   0x00, 0x51, 0x01, 0x00, 0x1e, 0x78, 0xf8, 0xff, 0x7f, 0x18, 0x2f, 0x60,
   0xbf, 0x02, 0x00, 0x00, 0x00, 0x00, 0xd4, 0x27, 0xe0, 0xf3, 0xf0, 0xff,
   0xff, 0xff, 0xc0, 0x00, 0x00, 0x00, 0x25, 0x91, 0x00, 0x75, 0xf0, 0xfc,
   0xff, 0xff, 0x38, 0x3e, 0x20, 0x5f, 0x01, 0x00, 0x00, 0x01, 0x00, 0xf0,
   0x07, 0xe0, 0xe3, 0xf5, 0xff, 0xff, 0xff, 0xe0, 0x00, 0x00, 0x00, 0x25,
   0x84, 0x02, 0x7d, 0xf0, 0xfe, 0xff, 0x7f, 0x7c, 0x3e, 0x20, 0x3f, 0x00,
   0x00, 0x02, 0x04, 0x00, 0xc8, 0x2f, 0xe0, 0x81, 0xf3, 0xff, 0xff, 0xff,
   0xe3, 0x00, 0x00, 0x00, 0x40, 0x31, 0x04, 0xf6, 0xf0, 0xfe, 0xff, 0x7f,
   0x0e, 0x1e, 0x80, 0xdf, 0x00, 0x00, 0x01, 0x01, 0x00, 0xf0, 0x1f, 0x80,
   0x84, 0xf7, 0xff, 0xff, 0xff, 0x73, 0x00, 0x40, 0x00, 0x09, 0x08, 0x02,
   0xf7, 0xf1, 0xff, 0xff, 0x7f, 0x0e, 0x10, 0xc0, 0x1f, 0x00, 0x20, 0x02,
   0x14, 0x00, 0xc0, 0x3f, 0x24, 0x00, 0xf3, 0xff, 0xff, 0xff, 0x6f, 0x00,
   0x20, 0x14, 0x60, 0x02, 0x09, 0xef, 0xfb, 0xff, 0xff, 0x7f, 0x07, 0x22,
   0xf0, 0x3f, 0x00, 0x80, 0x00, 0x01, 0x00, 0x80, 0xff, 0x0d, 0x01, 0xe7,
   0xff, 0xff, 0xff, 0x3f, 0x00, 0x90, 0xa0, 0x12, 0x90, 0x82, 0xdf, 0xfb,
   0xff, 0xff, 0x1f, 0x07, 0x80, 0xff, 0x0f, 0x00, 0x00, 0x02, 0x14, 0x00,
   0x00, 0xff, 0x47, 0x00, 0xc3, 0xff, 0xff, 0xff, 0x5f, 0x80, 0x20, 0x40,
   0x44, 0xa2, 0x80, 0xcf, 0xf9, 0xff, 0xff, 0x1f, 0x02, 0x44, 0xf5, 0x07,
   0x00, 0xa0, 0x00, 0x21, 0x00, 0x00, 0x7d, 0x0d, 0x00, 0x83, 0xff, 0xff,
   0xff, 0xbf, 0x80, 0x20, 0x85, 0x94, 0x94, 0xc2, 0xcf, 0xfd, 0xff, 0xff,
   0x07, 0x0e, 0x08, 0xef, 0x07, 0x00, 0x84, 0x02, 0x04, 0x00, 0x00, 0xf5,
   0x52, 0x81, 0x02, 0xff, 0xff, 0xff, 0xf7, 0x81, 0xa0, 0x48, 0x42, 0x0d,
   0xc5, 0x8f, 0xec, 0xff, 0xff, 0x27, 0x06, 0x40, 0x7d, 0x02, 0x00, 0x00,
   0x04, 0xa9, 0x00, 0x00, 0xc5, 0x17, 0x40, 0x23, 0xfe, 0xff, 0xff, 0x47,
   0x8d, 0xa1, 0x5a, 0x90, 0x20, 0xf5, 0xef, 0xc2, 0xff, 0xff, 0x45, 0x1c,
   0xa4, 0x9a, 0x06, 0x00, 0xa8, 0x00, 0x04, 0x00, 0x00, 0xd5, 0x7d, 0x09,
   0x40, 0xfd, 0xff, 0xff, 0xdf, 0x9f, 0x81, 0x8a, 0x04, 0x53, 0xf4, 0x7f,
   0xe9, 0xff, 0xff, 0x2b, 0x80, 0xd0, 0x5f, 0x05, 0x00, 0x82, 0x02, 0x51,
   0x01, 0x00, 0xd7, 0x2f, 0x40, 0x40, 0xfc, 0xff, 0xff, 0xbf, 0xff, 0xbf,
   0x52, 0x95, 0x44, 0xfa, 0xff, 0xf2, 0xff, 0xff, 0x00, 0x80, 0xa4, 0xbd,
   0x06, 0x00, 0x28, 0x02, 0x00, 0x04, 0xc0, 0x15, 0x00, 0x19, 0x91, 0xfa,
   0xff, 0xff, 0x5f, 0xff, 0x7f, 0x0d, 0x62, 0x66, 0xff, 0xff, 0xfa, 0xff,
   0xff, 0x4a, 0x54, 0x08, 0x80, 0x1e, 0x00, 0x40, 0x00, 0x82, 0x00, 0xc0,
   0x03, 0x00, 0x21, 0x00, 0xf0, 0xff, 0xff, 0xef, 0xff, 0x3f, 0x91, 0xa4,
   0xb6, 0xfe, 0xff, 0xfe, 0xff, 0x7f, 0x12, 0x40, 0x01, 0x00, 0x1d, 0x80,
   0x0a, 0x00, 0x00, 0x02, 0x80, 0x03, 0x00, 0x34, 0xb2, 0xe4, 0xff, 0xff,
   0xff, 0xff, 0x9f, 0x04, 0x1a, 0x7f, 0xfd, 0xff, 0xff, 0xff, 0x1f, 0x61,
   0x20, 0x02, 0x00, 0x16, 0x00, 0x00, 0x00, 0x02, 0x08, 0x80, 0x00, 0x00,
   0x24, 0x00, 0xc0, 0xff, 0xff, 0xf7, 0xff, 0x1f, 0x54, 0x32, 0x7f, 0xff,
   0xff, 0xff, 0xff, 0x5f, 0x08, 0xa2, 0x00, 0x00, 0x04, 0x40, 0x01, 0x01,
   0x00, 0x00, 0x00, 0x03, 0x00, 0x10, 0x40, 0x86, 0xff, 0xff, 0xf7, 0xff,
   0x4f, 0x81, 0xcd, 0xff, 0xfc, 0xff, 0xef, 0xff, 0x07, 0x01, 0xa0, 0x00,
   0x00, 0x04, 0x10, 0x00, 0x00, 0x12, 0x20, 0x00, 0x00, 0x00, 0x30, 0x09,
   0x78, 0xfe, 0xff, 0xf3, 0xff, 0x0f, 0xaa, 0xa2, 0x8f, 0xff, 0xff, 0xcf,
   0xff, 0xfb, 0x42, 0x02, 0x00, 0x00, 0x05, 0x00, 0x00, 0x00, 0x01, 0x00,
   0x00, 0x0a, 0x00, 0x00, 0x00, 0xf0, 0xff, 0x3f, 0xf3, 0xff, 0x2f, 0xb8,
   0xf4, 0xcf, 0xfc, 0xff, 0xcf, 0xf9, 0x7f, 0x10, 0x20, 0x00, 0x00, 0x02,
   0x08, 0x40, 0x06, 0x21, 0x41, 0x00, 0x00, 0x00, 0x80, 0x20, 0xe0, 0xff,
   0x0f, 0xfa, 0xff, 0x47, 0x7f, 0xe9, 0x9f, 0xff, 0xff, 0x5d, 0xf0, 0x3e,
   0x80, 0x00, 0x00, 0x00, 0x00, 0x00, 0x00, 0x04, 0x07, 0x00, 0x00, 0x00,
   0x00, 0x00, 0x90, 0x80, 0xff, 0x0f, 0xff, 0xff, 0xc7, 0xff, 0xfa, 0xcf,
   0xfc, 0xff, 0xd7, 0xe0, 0x0b, 0x50, 0x04, 0x00, 0x00, 0x00, 0x00, 0x02,
   0x07, 0x3f, 0x00, 0x00, 0x00, 0x00, 0x80, 0x12, 0x01, 0xfa, 0xc3, 0xff,
   0xff, 0xff, 0xff, 0xfd, 0xaf, 0xfd, 0xbf, 0xff, 0xc1, 0x0f, 0x04, 0x00,
   0x00, 0x00, 0x00, 0x00, 0x60, 0x07, 0xf7, 0x01, 0x00, 0x00, 0x00, 0x00,
   0x20, 0x84, 0xae, 0xff, 0xff, 0xff, 0xff, 0xf7, 0xff, 0xaf, 0xfa, 0xff,
   0xff, 0x5f, 0x03, 0x51, 0x05, 0x00, 0x00, 0x00, 0x00, 0xfc, 0x07, 0xaf,
   0x01, 0x00, 0x00, 0x00, 0x00, 0x4a, 0x09, 0x78, 0xfb, 0xff, 0xff, 0xff,
   0xff, 0xfd, 0xd7, 0xfd, 0x76, 0xd5, 0x7f, 0x10, 0x14, 0x01, 0x00, 0x00,
   0x00, 0x00, 0x5c, 0x07, 0xbf, 0x00, 0x00, 0x00, 0x00, 0x00, 0x94, 0x12,
   0xd2, 0xd6, 0xff, 0xff, 0xfe, 0xff, 0xff, 0x57, 0xf5, 0xfe, 0x7f, 0x1b,
   0x44, 0x45, 0x02, 0x00, 0x00, 0x00, 0x00, 0xe4, 0x07, 0xfd, 0x07, 0x00,
   0x00, 0x00, 0x00, 0x24, 0x02, 0x80, 0xba, 0xff, 0xff, 0xff, 0xff, 0xff,
   0x57, 0xfb, 0xdb, 0xea, 0x0f, 0x00, 0xa9, 0x00, 0x00, 0x00, 0x00, 0x00,
   0x7b, 0x07, 0x77, 0x16, 0x00, 0x00, 0x00, 0x00, 0x50, 0x00, 0x00, 0x16,
   0xee, 0xff, 0xfe, 0xff, 0xfe, 0xd7, 0x6a, 0x7f, 0x5f, 0x05, 0x00, 0x90,
   0x00, 0x00, 0x00, 0x00, 0x40, 0xf3, 0x07, 0xff, 0x0b, 0x00, 0x00, 0x00,
   0x00, 0x40, 0x00, 0x00, 0x2c, 0xe8, 0xdf, 0xff, 0xff, 0xff, 0x57, 0x73,
   0x75, 0xf0, 0x03, 0x00, 0x10, 0x00, 0x00, 0x00, 0x00, 0x80, 0xfe, 0x07,
   0xff, 0x2d, 0x00, 0x00, 0x00, 0x00, 0x00, 0x00, 0x00, 0x00, 0xf8, 0xff,
   0xff, 0x7f, 0xff, 0xeb, 0xd6, 0x15, 0xaa, 0x00, 0x00, 0x00, 0x00, 0x00,
   0x00, 0x00, 0x54, 0xfb, 0x07, 0xff, 0x9f, 0x01, 0x00, 0x00, 0x00, 0x00,
   0x08, 0x00, 0x20, 0x01, 0xba, 0xff, 0xff, 0xff, 0x4d, 0xef, 0x96, 0xe8,
   0x00, 0x00, 0x00, 0x00, 0x00, 0x00, 0x00, 0x4c, 0xff, 0x07, 0xff, 0xab,
   0x06, 0x00, 0x00, 0x00, 0x00, 0x00, 0x00, 0x00, 0x50, 0xfe, 0xff, 0x7f,
   0xff, 0xbb, 0xa6, 0x0d, 0x0d, 0x20, 0x00, 0x00, 0x00, 0x00, 0x00, 0x00,
   0xeb, 0xff, 0x07, 0xff, 0xff, 0x15, 0x00, 0x00, 0x00, 0x00, 0x00, 0x00,
   0x00, 0x18, 0xec, 0xff, 0xff, 0xff, 0xe5, 0x1e, 0x39, 0x34, 0x18, 0x00,
   0x00, 0x00, 0x00, 0x00, 0x40, 0x7d, 0xff, 0x07, 0xff, 0xef, 0x16, 0x80,
   0x00, 0x00, 0x00, 0x00, 0x00, 0x00, 0x00, 0xb8, 0xff, 0xbf, 0xfd, 0xdb,
   0x54, 0x07, 0x08, 0x06, 0x00, 0x00, 0x00, 0x10, 0x10, 0xe0, 0xee, 0xff,
   0x07, 0x7f, 0xdf, 0x7d, 0x50, 0x05, 0x00, 0x00, 0x00, 0x00, 0x00, 0x08,
   0xf0, 0xff, 0xff, 0xff, 0xf6, 0x3d, 0x06, 0x80, 0x00, 0x00, 0x00, 0x00,
   0x00, 0x2a, 0x40, 0xdf, 0xf7, 0x07, 0xff, 0xff, 0x57, 0xa8, 0x01, 0x00,
   0x00, 0x00, 0x00, 0x00, 0x20, 0xb0, 0xff, 0xbf, 0xff, 0xea, 0xbb, 0x42,
   0xe4, 0x00, 0x00, 0x00, 0x00, 0x00, 0x6a, 0x7a, 0xff, 0xfb, 0x07, 0xff,
   0xfb, 0xdf, 0x74, 0x4b, 0x05, 0x00, 0x00, 0x20, 0x00, 0x00, 0xc0, 0xff,
   0xff, 0xff, 0xef, 0x7f, 0x8f, 0x08, 0x00, 0x00, 0x00, 0x00, 0x8b, 0xd5,
   0xd1, 0xff, 0xfe, 0x07, 0xff, 0xf7, 0x7f, 0x55, 0x45, 0x2b, 0x00, 0x00,
   0xb0, 0x01, 0x00, 0xc0, 0xff, 0xef, 0x7e, 0xfd, 0xeb, 0x1d, 0x01, 0x00,
   0x28, 0x00, 0x50, 0x9a, 0x6c, 0xfc, 0x77, 0xff, 0x07, 0xff, 0xef, 0xff,
   0xfd, 0xdd, 0xaa, 0x02, 0x00, 0x68, 0x01, 0x00, 0xe0, 0xff, 0xff, 0xff,
   0xf5, 0x6f, 0x3f, 0x00, 0x00, 0x3f, 0x00, 0xd5, 0xb6, 0xed, 0xf5, 0xbf,
   0xff, 0x07, 0xff, 0xff, 0xff, 0xab, 0x56, 0x5d, 0x95, 0x1c, 0xb0, 0xff,
   0x02, 0xf0, 0xff, 0xff, 0xbf, 0xff, 0xbb, 0x1f, 0x00, 0xf0, 0xfe, 0x92,
   0x56, 0x55, 0x5b, 0xff, 0xff, 0xff, 0x07, 0xff, 0xff, 0x7f, 0xbf, 0xaa,
   0xff, 0x03, 0x10, 0x70, 0xdb, 0x01, 0xf8, 0xff, 0xff, 0xff, 0xfa, 0x77,
   0xff, 0x02, 0x00, 0x34, 0x00, 0xfc, 0x57, 0xf5, 0xf6, 0xff, 0xff, 0x07,
   0xff, 0xff, 0xef, 0xea, 0xd2, 0x00, 0x80, 0x00, 0xe8, 0x05, 0x00, 0xff,
   0xff, 0xef, 0xbf, 0xf7, 0xef, 0xee, 0x3f, 0x40, 0x80, 0x04, 0x02, 0x9c,
   0xea, 0xbb, 0xff, 0xff, 0x07, 0xff, 0xff, 0xff, 0xdd, 0x16, 0x91, 0x10,
   0x40, 0x00, 0x00, 0x70, 0xff, 0xff, 0xff, 0xff, 0xfe, 0xdb, 0xad, 0xfd,
   0x01, 0x14, 0x40, 0x88, 0x90, 0xae, 0xf6, 0xff, 0xff, 0x07, 0xff, 0xff,
   0x5f, 0xed, 0xa5, 0x04, 0x02, 0x04, 0x05, 0x02, 0xdc, 0xff, 0xff, 0xfd,
   0xbf, 0xfb, 0x6f, 0xfd, 0xff, 0x0f, 0x00, 0x01, 0x20, 0xaa, 0xfa, 0xd9,
   0xff, 0xff, 0x07, 0xff, 0xcf, 0xff, 0xb1, 0x2d, 0x21, 0x40, 0x00, 0x20,
   0x00, 0xff, 0xff, 0xff, 0xff, 0xff, 0xff, 0x6f, 0xeb, 0xfd, 0x7f, 0x00,
   0x08, 0x02, 0x90, 0x56, 0xfa, 0x7f, 0xff, 0x07, 0xff, 0x11, 0x7f, 0x66,
   0x49, 0x88, 0xc4, 0x00, 0x00, 0xe0, 0xff, 0xff, 0xff, 0xff, 0xff, 0xff,
   0xff, 0xff, 0xff, 0x7f, 0x01, 0x5c, 0x48, 0x20, 0x59, 0xf5, 0x03, 0xfd,
   0x07, 0x7f, 0x23, 0xfc, 0x2a, 0x09, 0x01, 0xfc, 0x27, 0x00, 0xf8, 0xff,
   0xff, 0xff, 0xff, 0xff, 0xff, 0xff, 0xff, 0xff, 0xff, 0x9f, 0xfe, 0x01,
   0x25, 0x52, 0xfa, 0x55, 0xfc, 0x07, 0xff, 0xde, 0xfa, 0xa2, 0x50, 0x8a,
   0xfe, 0xff, 0x92, 0xff, 0xff, 0xff, 0xff, 0xff, 0xff, 0xfe, 0xff, 0xff,
   0xff, 0xff, 0xff, 0xff, 0x4b, 0x90, 0xa4, 0xfe, 0xea, 0xfb, 0x07, 0xff,
   0xda, 0xa6, 0x2f, 0xab, 0x10, 0xff, 0xff, 0xff, 0xff, 0xff, 0xff, 0xff,
   0xff, 0xff, 0xff, 0xff, 0xff, 0xff, 0xff, 0xff, 0xff, 0x8f, 0x52, 0xa9,
   0x2a, 0x9a, 0xfe, 0x07, 0xbf, 0xb5, 0x55, 0x6a, 0x55, 0xc2, 0xff, 0xff,
   0xff, 0xff, 0xff, 0xff, 0xff, 0xff, 0xff, 0xff, 0xff, 0xff, 0xff, 0xff,
   0xff, 0xff, 0x1f, 0xa4, 0x56, 0xd5, 0x75, 0x7b, 0x07, 0x7b, 0x57, 0x56,
   0x5d, 0x95, 0xf4, 0xff, 0xff, 0xff, 0xff, 0xff, 0xff, 0xff, 0xff, 0xff,
   0xff, 0xff, 0xff, 0xff, 0xff, 0xff, 0xff, 0x7f, 0xa9, 0xda, 0x95, 0xc6,
   0xea, 0x06, 0x6d, 0xad, 0x29, 0x6d, 0x55, 0xf2, 0xff, 0xff, 0xff, 0xff,
   0xff, 0xff, 0xff, 0xff, 0xff, 0xff, 0xff, 0xff, 0xff, 0xff, 0xff, 0xff,
   0x7f, 0x24, 0xe5, 0x53, 0xb5, 0xb6, 0x03, 0xed, 0x7b, 0xeb, 0x7c, 0xa5,
   0xfc, 0xff, 0xff, 0xff, 0xff, 0x3f, 0xc0, 0xff, 0xff, 0xff, 0xff, 0xff,
   0x0f, 0xfc, 0xff, 0xff, 0xff, 0xff, 0xa5, 0xec, 0x35, 0xd5, 0x76, 0x07,
   0x5b, 0x95, 0x94, 0x75, 0x49, 0xff, 0xff, 0xff, 0xff, 0xff, 0x07, 0x80,
   0xff, 0xff, 0xff, 0xff, 0xff, 0x07, 0x00, 0xff, 0xff, 0xff, 0xff, 0x4f,
   0x79, 0xd6, 0xaa, 0xad, 0x02, 0xb7, 0xb6, 0x55, 0xed, 0xff, 0xff, 0xff,
   0xff, 0xff, 0x7f, 0x00, 0x00, 0xfe, 0xff, 0xff, 0xff, 0xff, 0x07, 0x00,
   0xf0, 0xff, 0xff, 0xff, 0xbf, 0xdf, 0xaa, 0x6a, 0xeb, 0x06, 0xd5, 0xdd,
   0xaa, 0x5a, 0xff, 0xff, 0xff, 0xff, 0xff, 0x0f, 0x00, 0x00, 0xfe, 0xff,
   0xff, 0xff, 0xff, 0x03, 0x00, 0xc0, 0xff, 0xff, 0xff, 0xff, 0xaf, 0xaa,
   0xde, 0x56, 0x03, 0x6f, 0xb5, 0xae, 0xd2, 0xfd, 0xff, 0xff, 0xff, 0xff,
   0x01, 0x00, 0x00, 0xff, 0xff, 0xff, 0xff, 0xff, 0x03, 0x00, 0x00, 0xfc,
   0xff, 0xff, 0xff, 0xdb, 0xaa, 0xea, 0xba, 0x06, 0xd4, 0xff, 0xb5, 0x56,
   0xeb, 0xff, 0xff, 0xff, 0x7f, 0x00, 0x00, 0x00, 0xfe, 0xff, 0xff, 0xff,
   0xff, 0x01, 0x00, 0x00, 0xf8, 0xff, 0xff, 0x7f, 0x55, 0xb5, 0xad, 0xef,
   0x05, 0xaf, 0x54, 0xb7, 0x55, 0xfa, 0xff, 0xff, 0xff, 0x1f, 0x00, 0x00,
   0x00, 0xfe, 0xff, 0xff, 0xff, 0xff, 0x00, 0x00, 0x00, 0xfc, 0xff, 0xff,
   0x5f, 0x55, 0x6d, 0xfd, 0x55, 0x06, 0x5b, 0xdb, 0x6a, 0xad, 0x95, 0xff,
   0xff, 0xff, 0x07, 0x00, 0x00, 0x00, 0xfe, 0xff, 0xff, 0xff, 0xff, 0x00,
   0x00, 0x00, 0xe0, 0xff, 0xff, 0xab, 0xaa, 0xb5, 0x95, 0xea, 0x07, 0x7f,
   0xb7, 0xae, 0x55, 0x55, 0xfa, 0xff, 0xff, 0x07, 0x00, 0x00, 0x00, 0xfe,
   0xff, 0xff, 0xff, 0xff, 0x00, 0x00, 0x00, 0x80, 0xff, 0xff, 0xaa, 0xaa,
   0x56, 0x77, 0xbf, 0x07 };
